symbols/web/drag_handle/materialsymbolsrounded/drag_handle_wght300grad200_48px.svg

<svg xmlns="http://www.w3.org/2000/svg" height="48" width="48"><path d="M9.5 21.85q-.6 0-1.025-.425Q8.05 21 8.05 20.4q0-.6.425-1.025.425-.425 1.025-.425h29q.6 0 1.025.425.425.425.425 1.025 0 .6-.425 1.025-.425.425-1.025.425Zm0 7.2q-.6 0-1.025-.425Q8.05 28.2 8.05 27.6q0-.65.425-1.05t1.025-.4h29q.6 0 1.025.425.425.425.425 1.025 0 .6-.425 1.025-.425.425-1.025.425Z"/></svg>

<svg xmlns="http://www.w3.org/2000/svg" height="48" width="48"><path d="M9.5 21.85Q8.9 21.85 8.475 21.425Q8.05 21 8.05 20.4Q8.05 19.8 8.475 19.375Q8.9 18.95 9.5 18.95H38.5Q39.1 18.95 39.525 19.375Q39.95 19.8 39.95 20.4Q39.95 21 39.525 21.425Q39.1 21.85 38.5 21.85ZM9.5 29.05Q8.9 29.05 8.475 28.625Q8.05 28.2 8.05 27.6Q8.05 26.95 8.475 26.55Q8.9 26.15 9.5 26.15H38.5Q39.1 26.15 39.525 26.575Q39.95 27 39.95 27.6Q39.95 28.2 39.525 28.625Q39.1 29.05 38.5 29.05Z"/></svg>
